packages/ffe-icons/icons/filled/sm/file_copy.svg

<svg xmlns="http://www.w3.org/2000/svg" height="20" viewBox="0 -960 960 960" width="20"><path d="M731.691-212.001H324.309q-26.308 0-45.308-19t-19-45.308v-551.382q0-26.308 19-45.308t45.308-19h282.769q12.461 0 24.307 4.616 11.846 4.615 21.693 14.461l123.844 123.844q9.846 9.847 14.461 21.693 4.616 11.846 4.616 24.307v426.769q0 26.308-19 45.308t-45.308 19Zm12.309-480L596.001-840v105.538q0 18.384 12.039 30.422 12.038 12.039 30.422 12.039H744Zm-563.691 624q-26.308 0-45.308-19t-19-45.308v-493.69q0-10.769 7.616-18.384 7.615-7.616 18.384-7.616t18.384 7.616Q168-636.768 168-625.999v493.69q0 4.616 3.846 8.463 3.847 3.846 8.463 3.846h397.69q10.769 0 18.384 7.615 7.616 7.615 7.616 18.384 0 10.77-7.616 18.384Q588.768-68 577.999-68h-397.69Z"/></svg>

<svg xmlns="http://www.w3.org/2000/svg" height="20" viewBox="0 -960 960 960" width="20"><path d="M731.69-212H324.31Q298-212 279-231q-19-19-19-45.31v-551.38Q260-854 279-873q19-19 45.31-19h282.77q12.46 0 24.31 4.62 11.84 4.61 21.69 14.46l123.84 123.84q9.85 9.85 14.46 21.69 4.62 11.85 4.62 24.31v426.77Q796-250 777-231q-19 19-45.31 19ZM744-692 596-840v105.54q0 18.38 12.04 30.42Q620.08-692 638.46-692H744ZM180.31-68Q154-68 135-87q-19-19-19-45.31V-626q0-10.77 7.62-18.38Q131.23-652 142-652t18.38 7.62Q168-636.77 168-626v493.69q0 4.62 3.85 8.46 3.84 3.85 8.46 3.85H578q10.77 0 18.38 7.62Q604-104.77 604-94t-7.62 18.38Q588.77-68 578-68H180.31Z"/></svg>
